src/images/floppy.svg

<svg xmlns="http://www.w3.org/2000/svg" fill="none" viewBox="0 0 29 28">
	<style>
		@media (prefers-color-scheme: dark) {
			path {
				fill: #00CC14;
			}
		}
	</style>
	<path fill="#000"
		d="M.5 0h2.154v2.154H.5zM.5 2.154h2.154v2.154H.5zM.5 4.308h2.154v2.154H.5zM.5 6.462h2.154v2.154H.5z" />
	<path fill="#000"
		d="M.5 8.615h2.154v2.154H.5zM.5 10.769h2.154v2.154H.5zM.5 12.923h2.154v2.154H.5zM.5 15.077h2.154v2.154H.5zM.5 17.231h2.154v2.154H.5zM.5 19.385h2.154v2.154H.5z" />
	<path fill="#000"
		d="M.5 21.538h2.154v2.154H.5zM.5 23.692h2.154v2.154H.5zM.5 25.846h2.154V28H.5zM24.193 0v2.154h-2.154V0z" />
	<path fill="#000" d="M22.04 0v2.154h-2.155V0zM19.884 0v2.154H17.73V0zM17.73 0v2.154h-2.154V0z" />
	<path fill="#000" d="M15.577 0v2.154h-2.154V0zM13.423 0v2.154H11.27V0zM11.27 0v2.154H9.115V0z" />
	<path fill="#000"
		d="M9.116 0v2.154H6.962V0zM6.96 0v2.154H4.808V0zM4.807 0v2.154H2.653V0zM26.346 2.154v2.154h-2.154V2.154zM6.96 4.308v2.154H4.808V4.308zM6.961 2.154v2.154H4.807V2.154zM6.96 6.462v2.154H4.808V6.462zM22.039 4.308v2.154h-2.154V4.308zM22.04 2.154v2.154h-2.155V2.154zM22.039 6.462v2.154h-2.154V6.462zM17.73 4.307v2.154h-2.154V4.307z" />
	<path fill="#000"
		d="M17.73 2.154v2.154h-2.153V2.154zM17.73 6.461v2.154h-2.154V6.461zM22.04 8.615v2.154h-2.155V8.615zM19.884 8.615v2.154H17.73V8.615zM17.73 8.615v2.154h-2.153V8.615zM15.577 8.615v2.154h-2.154V8.615zM13.423 8.615v2.154H11.27V8.615zM11.27 8.616v2.154H9.116V8.616zM9.116 8.615v2.154H6.962V8.615zM6.961 8.615v2.154H4.807V8.615zM24.193 15.077v2.154h-2.154v-2.154zM22.039 15.077v2.154h-2.154v-2.154zM19.884 15.077v2.154H17.73v-2.154zM17.73 15.076v2.154h-2.154v-2.154z" />
	<path fill="#000" d="M15.577 15.077v2.154h-2.154v-2.154zM13.423 15.077v2.154h-2.154v-2.154z" />
	<path fill="#000" d="M11.27 15.077v2.154H9.114v-2.154z" />
	<path fill="#000"
		d="M9.116 15.077v2.154H6.962v-2.154zM6.96 15.077v2.154H4.808v-2.154zM24.192 17.231v2.154h-2.154v-2.154z" />
	<path fill="#000"
		d="M6.96 17.23v2.155H4.808V17.23zM24.192 19.385v2.154h-2.154v-2.154zM6.96 19.385v2.154H4.808v-2.154zM24.193 21.539v2.154h-2.154v-2.154z" />
	<path fill="#000"
		d="M6.961 21.538v2.154H4.807v-2.154zM6.961 23.692v2.154H4.807v-2.154zM24.193 23.693v2.154H22.04v-2.154z" />
	<path fill="#000" d="M26.346 25.846V28h-2.154v-2.154z" />
	<path fill="#000"
		d="M24.193 25.846V28h-2.154v-2.154zM22.039 25.846V28h-2.154v-2.154zM19.884 25.846V28H17.73v-2.154zM17.73 25.845V28h-2.154v-2.154z" />
	<path fill="#000" d="M15.577 25.846V28h-2.154v-2.154zM13.423 25.846V28h-2.154v-2.154z" />
	<path fill="#000" d="M11.27 25.846V28H9.114v-2.154z" />
	<path fill="#000"
		d="M9.116 25.846V28H6.962v-2.154zM6.96 25.846V28H4.808v-2.154zM4.807 25.846V28H2.653v-2.154zM28.5 28h-2.154v-2.154H28.5zM28.5 25.846h-2.154v-2.154H28.5z" />
	<path fill="#000"
		d="M28.5 23.693h-2.154v-2.154H28.5zM28.5 21.539h-2.154v-2.154H28.5zM28.5 19.385h-2.154V17.23H28.5zM28.5 17.23h-2.154v-2.154H28.5z" />
	<path fill="#000"
		d="M28.5 15.077h-2.154v-2.154H28.5zM28.5 12.923h-2.154V10.77H28.5zM28.5 10.77h-2.154V8.616H28.5zM28.5 8.615h-2.154V6.461H28.5zM28.5 6.461h-2.154V4.307H28.5z" />
</svg>

<svg xmlns="http://www.w3.org/2000/svg" viewBox="0 0 29 28">
	<symbol id="floppy">
		<path fill="currentColor"
			d="M.5 0h2.15v2.15H.5zm0 2.15h2.15V4.3H.5zm0 2.16h2.15v2.15H.5zm0 2.15h2.15v2.15H.5zm0 2.16h2.15v2.15H.5zm0 2.15h2.15v2.15H.5zm0 2.15h2.15v2.15H.5zm0 2.16h2.15v2.15H.5zm0 2.15h2.15v2.15H.5zm0 2.15h2.15v2.15H.5zm0 2.16h2.15v2.15H.5zm0 2.15h2.15v2.15H.5zm0 2.16h2.15V28H.5zM24.2 0v2.15h-2.16V0zm-2.16 0v2.15h-2.15V0zm-2.16 0v2.15h-2.15V0zm-2.15 0v2.15h-2.15V0zm-2.15 0v2.15h-2.15V0zm-2.16 0v2.15h-2.15V0zm-2.15 0v2.15H9.12V0zM9.12 0v2.15H6.97V0zM6.96 0v2.15H4.81V0zM4.8 0v2.15H2.67V0zm21.55 2.16V4.3H24.2V2.16zM6.96 4.3v2.16H4.8V4.3zm0-2.15V4.3H4.81V2.15zm0 4.31v2.15H4.81V6.46zM22.04 4.3v2.16h-2.15V4.3zm0-2.15V4.3H19.9V2.15zm0 4.31v2.15H19.9V6.46zM17.73 4.3v2.16h-2.15V4.3zm0-2.15V4.3h-2.15V2.15zm0 4.31v2.15h-2.15V6.46zm4.3 2.16v2.15h-2.15V8.62zm-2.15-.01v2.15h-2.15V8.61zm-2.15 0v2.15h-2.15V8.61zm-2.16.01v2.15h-2.15V8.62zm-2.15-.01v2.15h-2.15V8.61zm-2.16.01v2.15H9.11V8.62zm-2.15 0v2.15H6.96V8.62zm-2.15-.01v2.15H4.8V8.61zm17.23 6.46v2.15h-2.15v-2.15zm-2.15.01v2.15h-2.15v-2.15zm-2.16-.01v2.15h-2.15v-2.15zm-2.15.01v2.15h-2.15v-2.15zm-2.16 0v2.15h-2.15v-2.15zm-2.15-.01v2.15h-2.15v-2.15zm-2.15.01v2.15H9.12v-2.15zm-2.16 0v2.15H6.96v-2.15zm-2.15 0v2.15H4.8v-2.15zm17.24 2.15v2.15h-2.16v-2.15zm-17.24 0v2.15H4.81v-2.15zm17.24 2.15v2.15h-2.15v-2.15zm-17.23 0v2.15H4.82v-2.15zm17.23 2.16v2.15h-2.16v-2.15zm-17.24 0v2.15H4.8v-2.15zm0 2.16v2.14H4.81V23.7zm17.24-.01v2.15h-2.15v-2.15zm2.14 2.16V28H24.2v-2.15zm-2.15-.01V28h-2.15v-2.15zm-2.16.01V28h-2.15v-2.15zm-2.15-.01V28h-2.15v-2.15zm-2.15.01V28h-2.15v-2.15zm-2.16 0V28h-2.15v-2.15zm-2.15-.01V28h-2.15v-2.15zm-2.15.01V28H9.12v-2.15zm-2.16 0V28H6.96v-2.15zm-2.15-.01V28H4.8v-2.15zm-2.16.01V28H2.65v-2.15zM28.5 28h-2.15v-2.15h2.15zm0-2.16h-2.15V23.7h2.15zm0-2.14h-2.15v-2.16h2.15zm0-2.16h-2.15v-2.15h2.15zm0-2.15h-2.15v-2.15h2.15zm0-2.16h-2.15v-2.15h2.15zm0-2.16h-2.15v-2.15h2.15z" />
		<path fill="currentColor"
			d="M28.5 12.93h-2.15v-2.15h2.15zm0-2.16h-2.15V8.62h2.15zm0-2.16h-2.15V6.46h2.15zm0-2.15h-2.15V4.31h2.15z" />
	</symbol>
</svg>
